icon-themes/breeze_svg/cmd/sc_beziercutline.svg

<svg viewBox="0 0 16 16" xmlns="http://www.w3.org/2000/svg"><path d="m6 2v1h-4v1h4v2h4v-2h4v-1h-4v-1zm1 1h2v2h-2zm-5 8v3h3v-1h2v-1h-2v-1zm9 0v1h-2v1h2v1h3v-3zm-8 1h1v1h-1zm9 0h1v1h-1z" fill="#4d4d4d"/><path d="m6 8 2 3 2-3z" fill="#1d99f3"/></svg>

<svg xmlns="http://www.w3.org/2000/svg" viewBox="0 0 16 16">
 <path 
     style="fill:#4d4d4d" 
     d="M 6 2 L 6 3 L 2 3 L 2 4 L 6 4 L 6 6 L 10 6 L 10 4 L 14 4 L 14 3 L 10 3 L 10 2 L 6 2 z M 7 3 L 9 3 L 9 5 L 7 5 L 7 3 z M 2 11 L 2 14 L 5 14 L 5 13 L 7 13 L 7 12 L 5 12 L 5 11 L 2 11 z M 11 11 L 11 12 L 9 12 L 9 13 L 11 13 L 11 14 L 14 14 L 14 11 L 11 11 z M 3 12 L 4 12 L 4 13 L 3 13 L 3 12 z M 12 12 L 13 12 L 13 13 L 12 13 L 12 12 z "
     />
 <path 
     style="fill:#1d99f3" 
     d="M 6 8 L 8 11 L 10 8 L 6 8 z "
     />
 </svg>
